icons/bold-16.svg

<svg width="16" height="16" viewBox="0 0 16 16" xmlns="http://www.w3.org/2000/svg">
  <path fill-rule="evenodd" clip-rule="evenodd" d="M4 2C3.44772 2 3 2.44772 3 3V8V13C3 13.5523 3.44772 14 4 14H9.5C11.433 14 13 12.433 13 10.5C13 9.24701 12.3416 8.14781 11.3519 7.52949C11.7599 6.95707 12 6.25657 12 5.5C12 3.567 10.433 2 8.5 2H4ZM8.5 7C9.32843 7 10 6.32843 10 5.5C10 4.67157 9.32843 4 8.5 4H5V7H8.5ZM5 9V12H9.5C10.3284 12 11 11.3284 11 10.5C11 9.67157 10.3284 9 9.5 9H8.5H5Z"/>
</svg>

<svg xmlns="http://www.w3.org/2000/svg" width="16" height="16" viewBox="0 0 16 16"><path fill-rule="evenodd" d="M4 2a1 1 0 00-1 1v10a1 1 0 001 1h5.5a3.5 3.5 0 001.852-6.47A3.5 3.5 0 008.5 2H4zm4.5 5a1.5 1.5 0 100-3H5v3h3.5zM5 9v3h4.5a1.5 1.5 0 000-3H5z"/></svg>
